icons/op-work-packages-16.svg

<svg width="16" height="16" viewBox="0 0 16 16" fill="none" xmlns="http://www.w3.org/2000/svg">
<g clip-path="url(#clip0_35_1701)">
<path fill-rule="evenodd" clip-rule="evenodd" d="M10.8438 0.177216C11.2499 -0.0590722 11.7501 -0.0590717 12.1562 0.177216L15.3437 2.26574C15.7498 2.50207 16 2.93886 16 3.41157V7.58843C16 8.06114 15.7498 8.49793 15.3437 8.73426L12.1562 10.8228C11.7501 11.0591 11.2499 11.0591 10.8438 10.8228L9 9.61467V12.5884C9 13.0611 8.74981 13.4979 8.34368 13.7343L5.15618 15.8228C4.75013 16.0591 4.24987 16.0591 3.84382 15.8228L0.656315 13.7343C0.250188 13.4979 0 13.0611 0 12.5884V8.41157C0 7.93886 0.25019 7.50207 0.656316 7.26574L3.84382 5.17722C4.24987 4.94093 4.75013 4.94093 5.15618 5.17722L7 6.38533V3.41157C7 2.93886 7.25019 2.50207 7.65632 2.26574L10.8438 0.177216ZM8.99235 8.26878C8.94755 7.85218 8.70855 7.47806 8.34368 7.26574L8.125 7.12245V3.95732L10.9375 5.82763V9.56788L8.99235 8.26878ZM11.5937 1.15936C11.5357 1.1256 11.4643 1.1256 11.4063 1.15936L8.68741 2.97516L11.5 4.84553L14.3126 2.97517L11.5937 1.15936ZM14.7812 7.75212L12.0625 9.56786V5.82763L14.875 3.95734V7.58843C14.875 7.65596 14.8393 7.71836 14.7812 7.75212ZM4.59374 6.15936C4.53573 6.1256 4.46427 6.1256 4.40626 6.15936L1.68741 7.97516L4.50002 9.84553L7.3126 7.97517L4.59374 6.15936ZM1.125 12.5884V8.95732L3.93752 10.8276V14.5679L1.21876 12.7521C1.16074 12.7184 1.125 12.656 1.125 12.5884ZM7.78124 12.7521L5.06252 14.5679V10.8276L7.875 8.95734V12.5884C7.875 12.656 7.83926 12.7184 7.78124 12.7521Z" fill="#24292F"/>
</g>
<defs>
<clipPath id="clip0_35_1701">
<rect width="16" height="16" fill="white"/>
</clipPath>
</defs>
</svg>

<svg xmlns="http://www.w3.org/2000/svg" width="16" height="16" viewBox="0 0 16 16"><path d="M10.844.177a1.303 1.303 0 0 1 1.312 0l3.188 2.089c.406.236.656.673.656 1.146v4.176c0 .473-.25.91-.656 1.146l-3.188 2.089a1.304 1.304 0 0 1-1.312 0L9 9.615v2.973c0 .473-.25.91-.656 1.146l-3.188 2.089c-.2.117-.424.176-.648.177h-.016a1.294 1.294 0 0 1-.648-.177L.656 13.734A1.325 1.325 0 0 1 0 12.588V8.412c0-.473.25-.91.656-1.146l3.188-2.089a1.304 1.304 0 0 1 1.312 0L7 6.385V3.412c0-.473.25-.91.656-1.146Zm-6.25 5.982a.19.19 0 0 0-.188 0L1.687 7.975 4.5 9.846l2.813-1.871Zm7-5a.19.19 0 0 0-.188 0L8.687 2.975 11.5 4.846l2.813-1.871ZM1.125 12.588c0 .068.036.13.094.164l2.719 1.816v-3.74L1.125 8.957Zm6.656.164a.19.19 0 0 0 .094-.164V8.957l-2.812 1.871v3.74Zm7-5a.19.19 0 0 0 .094-.164V3.957l-2.813 1.871v3.74Zm-5.789.517 1.946 1.299v-3.74L8.125 3.957v3.165l.219.144c.365.212.604.586.648 1.003Z"/></svg>
